!!!COM: Bach, Johann Sebastian
!!!CDT: 1685/3//-1750/7/28/
!!!OTL@@DE: Jesu, meiner Seelen Wonne
!!!AGN: 4-Part Chorale
!!!SCT: BH 350
!!!SCT: BWV 360
**harm	**root	**kern	**kern	**kern	**kern
!	!	!bass	!tenor	!alto	!soprno
*	*Iorgan	*Iorgan	*Iorgan	*Iorgan	*Iorgan
*M4/4	*M4/4	*M4/4	*M4/4	*M4/4	*M4/4
*met(c)	*met(c)	*met(c)	*met(c)	*met(c)	*met(c)
*MM60	*MM60	*MM60	*MM60	*MM60	*MM60
*k[b-e-a-d-]	*k[b-e-a-d-]	*k[b-e-a-d-]	*k[b-e-a-d-]	*k[b-e-a-d-]	*k[b-e-a-d-]
*A-:	*A-:	*A-:	*A-:	*A-:	*A-:
*>[A,A,B]	*>[A,A,B]	*>[A,A,B]	*>[A,A,B]	*>[A,A,B]	*>[A,A,B]
*>A	*>A	*>A	*>A	*>A	*>A
=1-	=1-	=1-	=1-	=1-	=1-
I	4BB-	4A-	4e-	4a-	4cc
IVb	4EE-	4F	8A-	4a-	4dd-
.	.	.	8B-	.	.
iii	4DD	4C	4c	4g	4ee-
vi7	4GG	4F	4c	8a-	4ee-
.	.	.	.	8g	.
=2	=2	=2	=2	=2	=2
ii	4CC	4BB-	4d-	8f	4dd-
.	.	.	.	8g	.
I	4BB-	4AA-	4e-	4a-	4cc
V	4FF	4E-	4e-	4g	4b-
V;	4FF;	4E-;	4e-;	4g;	4b-;
=3	=3	=3	=3	=3	=3
I	4BB-	4AA-	4e-	4a-	4cc
ii	4CC	4BB-	4d-	8g	4dd-
.	.	.	.	8f	.
iii	4DD	4C	8c	4e-	4ee-
.	.	.	8B-	.	.
vi	4GG	8F	4A-	4f	4cc
.	.	8E-	.	.	.
=4	=4	=4	=4	=4	=4
ii7b	4CC	4D-	4A-	4f	4.b-
V	4FF	4E-	4G	4e-	.
.	.	.	.	.	8b-
I;	2BB-;	2AA-;	2c;	2e-;	2a-;
=:|!	=:|!	=:|!	=:|!	=:|!	=:|!
*>B	*>B	*>B	*>B	*>B	*>B
=5	=5	=5	=5	=5	=5
V	4FF	4E-	4e-	4g	4b-
viiob/ii	4BB	4C	4E-	4a	4cc
ii	4CC	8BB-	4F	4b-	4dd-
.	.	8C	.	.	.
iib	4CC	8D-	4B-	4f	4dd-
.	.	8E-	.	.	.
=6	=6	=6	=6	=6	=6
V/ii	4GG	4F	8B-	4f	4.cc
.	.	.	8G	.	.
V7/ii	4GG	4FF	4A	8e-	.
.	.	.	.	8d-	8b-
ii;	2CC;	2BB-;	2F;	2d-;	2b-;
!!linebreak: 2
=7	=7	=7	=7	=7	=7
ii	4CC	4B-	4B-	4f	4dd-
V7/IV	4BB-	8A-	4c	4a-	4ee-
.	.	8G-	.	.	.
IVb	4EE-	8F	4d-	4a-	4ff
.	.	8E-	.	.	.
IV	4EE-	4D-	4d-	4a-	4ff
=8	=8	=8	=8	=8	=8
V/IV	4BB-	4A-	8d-	4a-	4ee-
.	.	.	8B-	.	.
V7/IV	4BB-	4AA-	4c	8a-	8.ee-
.	.	.	.	8g-	.
.	.	.	.	.	16dd-
IV;	2EE-;	2D-;	2A-;	2f;	2dd-;
=9	=9	=9	=9	=9	=9
vi	4GG	4F	4A-	4f	4cc
IV	4EE-	8E-	4A-	4f	4dd-
.	.	8D-	.	.	.
Vb/IV	4BB-	4C	8A-	4e-	4ee-
.	.	.	8G-	.	.
IV	4EE-	4D-	4F	4d-	4a-
=10	=10	=10	=10	=10	=10
V7b	4FF	4GG	4B-	4e-	4dd-
I	4BB-	4AA-	4A-	4e-	4cc
V	4FF	4E-	4G	4e-	4b-
V;	4FF;	4E-;	4G;	4e-;	4b-;
=11	=11	=11	=11	=11	=11
I	4BB-	4A-	4A-	4e-	4cc
IVb	4EE-	8G	4A-	4f	4dd-
.	.	8F	.	.	.
V	4FF	8G	4B-	4e-	4ee-
.	.	8E-	.	.	.
I	4BB-	4A-	4A-	4e-	4cc
=12	=12	=12	=12	=12	=12
ii7b	4CC	4D-	4A-	4f	4b-
V	4FF	4E-	4G	4e-	4b-
I	4BB-	4AA-	4c	4e-	4a-
I;	4BB-;	4AA-;	4c;	4e-;	4a-;
==	==	==	==	==	==
*-	*-	*-	*-	*-	*-
!!chor2scor: -l 2 -s 0.6 -o %b.pmx
!!!YEC: Copyright 1994, David Huron
!!!YEC: Changes/Additions 2001 by Craig Stuart Sapp
!!!YEN: United States of America
!!!SMA: 371 Bach Chorales, edited by Ludwig Erk, C.F. Peters
!!!PDT: 1850, 1865
!!!ONB: Harmony and Root analysis done manually
